packages/icons/svgs/solid/Source=battery.svg

<svg width="12" height="12" viewBox="0 0 12 12" fill="none" xmlns="http://www.w3.org/2000/svg">
<path d="M11.25 3.75H10.5V3C10.5 2.17125 9.82875 1.5 9 1.5H1.5C0.67125 1.5 0 2.17125 0 3V9C0 9.82875 0.67125 10.5 1.5 10.5H9C9.82875 10.5 10.5 9.82875 10.5 9V8.25H11.25C11.664 8.25 12 7.914 12 7.5V4.5C12 4.086 11.664 3.75 11.25 3.75ZM9 9H1.5V3H9V9Z" fill="black"/>
</svg>

<svg xmlns="http://www.w3.org/2000/svg" width="12" height="12" viewBox="0 0 12 12"><path d="M11.25 3.75h-.75V3A1.5 1.5 0 0 0 9 1.5H1.5A1.5 1.5 0 0 0 0 3v6a1.5 1.5 0 0 0 1.5 1.5H9A1.5 1.5 0 0 0 10.5 9v-.75h.75A.75.75 0 0 0 12 7.5v-3a.75.75 0 0 0-.75-.75ZM9 9H1.5V3H9v6Z"/></svg>
